X: 30369
T: Old Pigeon On The Gate, The
R: reel
M: 4/4
K: Gmajor
|:Bc|dG G2 dgfg|d2 de dcAB|cF F2 dF F2|(3Bcd de dcBc|
dG G2 d3e|d3e dcAG|FGAB cdeg|fdcA G2 Bc:|
|:dg g2 ag g2|dg g2 b3g|d3e f3e|defg agfd|
dg g2 ag g2|dg g2 b3g|dcde f3d|cAFA G4:|

